svgs/duotone/tower-control.svg

<svg xmlns="http://www.w3.org/2000/svg" viewBox="0 0 448 512"><!--! Font Awesome Pro 6.6.0 by @fontawesome - https://fontawesome.com License - https://fontawesome.com/license (Commercial License) Copyright 2024 Fonticons, Inc. --><path class="fa-secondary" style="fill:var(--fa-secondary-color,inherit);opacity:var(--fa-secondary-opacity,.4);" d="M2.6 167.9c0 3.6 .5 7.3 1.6 11.1L44.5 320.2C28.5 321.9 16 335.5 16 352c0 17.7 14.3 32 32 32l32 0 288 0 32 0c17.7 0 32-14.3 32-32c0-16.5-12.5-30.1-28.5-31.8L443.9 179c1.1-3.7 1.6-7.4 1.6-11.1c0-21.3-17.3-39.9-40-39.9L320 128l-32 0-40 0-48 0-40 0-32 0-85.4 0c-22.7 0-40 18.6-40 39.9zM74.4 192l53.6 0 0 128-17 0c-.1-.3-.1-.5-.2-.8L74.4 192zM176 192l96 0 0 128-96 0 0-128zm144 0l53.6 0L337.2 319.2c-.1 .3-.1 .5-.2 .8l-17 0 0-128z"/><path class="fa-primary" style="fill:var(--fa-primary-color,inherit);opacity:var(--fa-primary-opacity,1);" d="M160 24c0-13.3 10.7-24 24-24l40 0 40 0c13.3 0 24 10.7 24 24s-10.7 24-24 24l-16 0 0 48 40 0c17.7 0 32 14.3 32 32l-32 0-40 0-48 0-40 0-32 0c0-17.7 14.3-32 32-32l40 0 0-48-16 0c-13.3 0-24-10.7-24-24zM368 384l0 96c0 17.7-14.3 32-32 32l-224 0c-17.7 0-32-14.3-32-32l0-96 288 0z"/></svg>

<svg xmlns="http://www.w3.org/2000/svg" viewBox="0 0 448 512"><!--! Font Awesome Pro 6.4.2 by @fontawesome - https://fontawesome.com License - https://fontawesome.com/license (Commercial License) Copyright 2023 Fonticons, Inc. --><path class="fa-primary" style="fill:var(--fa-primary-color,inherit);opacity:var(--fa-primary-opacity,1);" d="M160 24c0-13.3 10.7-24 24-24h40 40c13.3 0 24 10.7 24 24s-10.7 24-24 24H248V96h40c17.7 0 32 14.3 32 32H288 248 200 160 128c0-17.7 14.3-32 32-32h40V48H184c-13.3 0-24-10.7-24-24zM368 384v96c0 17.7-14.3 32-32 32H112c-17.7 0-32-14.3-32-32V384H368z"/><path class="fa-secondary" style="fill:var(--fa-secondary-color,inherit);opacity:var(--fa-secondary-opacity,.4);" d="M74.4 192H128V320H111c-.1-.3-.1-.5-.2-.8L74.4 192zM176 192h96V320H176V192zm144 0h53.6L337.2 319.2c-.1 .3-.1 .5-.2 .8H320V192zM4.1 179L44.5 320.2C28.5 321.9 16 335.5 16 352c0 17.7 14.3 32 32 32l352 0c17.7 0 32-14.3 32-32c0-16.5-12.5-30.1-28.5-31.8L443.9 179c7.3-25.6-11.9-51-38.5-51H42.6C16 128-3.2 153.4 4.1 179z"/></svg>
